docs/local/img/sprites/range.svg

<svg width="11" height="14" viewBox="0 0 11 14" xmlns="http://www.w3.org/2000/svg">
<path d="M7.10417 14C7.2865 14 7.46137 13.8946 7.5903 13.7071C7.71923 13.5196 7.79167 13.2652 7.79167 13V6C7.79167 5.73478 7.71923 5.48043 7.5903 5.29289C7.46137 5.10536 7.2865 5 7.10417 5C6.92183 5 6.74696 5.10536 6.61803 5.29289C6.4891 5.48043 6.41667 5.73478 6.41667 6V13C6.41667 13.2652 6.4891 13.5196 6.61803 13.7071C6.74696 13.8946 6.92183 14 7.10417 14Z"/>
<path d="M0.6875 14C0.869836 14 1.0447 13.9239 1.17364 13.7885C1.30257 13.653 1.375 13.4693 1.375 13.2778V8.22222C1.375 8.03068 1.30257 7.84698 1.17364 7.71153C1.0447 7.57609 0.869836 7.5 0.6875 7.5C0.505164 7.5 0.330295 7.57609 0.201364 7.71153C0.072433 7.84698 0 8.03068 0 8.22222V13.2778C0 13.4693 0.072433 13.653 0.201364 13.7885C0.330295 13.9239 0.505164 14 0.6875 14Z"/>
<path d="M10.3125 14C10.4948 14 10.6697 13.9135 10.7986 13.7594C10.9276 13.6054 11 13.3964 11 13.1786V3.32143C11 3.10357 10.9276 2.89464 10.7986 2.74059C10.6697 2.58654 10.4948 2.5 10.3125 2.5C10.1302 2.5 9.95529 2.58654 9.82636 2.74059C9.69743 2.89464 9.625 3.10357 9.625 3.32143V13.1786C9.625 13.3964 9.69743 13.6054 9.82636 13.7594C9.95529 13.9135 10.1302 14 10.3125 14Z"/>
<path d="M3.89583 14C4.07817 14 4.25304 13.8946 4.38197 13.7071C4.5109 13.5196 4.58333 13.2652 4.58333 13V1C4.58333 0.734784 4.5109 0.48043 4.38197 0.292893C4.25304 0.105357 4.07817 0 3.89583 0C3.7135 0 3.53863 0.105357 3.4097 0.292893C3.28077 0.48043 3.20833 0.734784 3.20833 1V13C3.20833 13.2652 3.28077 13.5196 3.4097 13.7071C3.53863 13.8946 3.7135 14 3.89583 14Z"/>
</svg>

<svg width="11" height="14" viewBox="0 0 11 14" xmlns="http://www.w3.org/2000/svg"><path d="M7.104 14c.183 0 .357-.105.486-.293.13-.187.202-.442.202-.707V6c0-.265-.073-.52-.202-.707C7.461 5.105 7.287 5 7.104 5c-.182 0-.357.105-.486.293A1.266 1.266 0 006.417 6v7c0 .265.072.52.201.707.129.188.304.293.486.293zM.688 14a.671.671 0 00.486-.211.741.741 0 00.201-.511V8.222a.741.741 0 00-.201-.51.671.671 0 00-.486-.212.671.671 0 00-.487.212.741.741 0 00-.201.51v5.056c0 .191.072.375.201.51A.671.671 0 00.687 14zm9.625 0a.636.636 0 00.486-.24.909.909 0 00.201-.581V3.32a.909.909 0 00-.201-.58.636.636 0 00-.486-.241.636.636 0 00-.487.24.909.909 0 00-.201.581v9.858c0 .217.072.426.201.58.13.155.304.241.486.241zm-6.417 0c.182 0 .357-.105.486-.293.129-.187.201-.442.201-.707V1c0-.265-.072-.52-.201-.707C4.253.105 4.078 0 3.896 0c-.183 0-.357.105-.486.293A1.266 1.266 0 003.208 1v12c0 .265.073.52.202.707.129.188.303.293.486.293z"/></svg>
